assets/logos/icons/twitter.svg

<svg height="24" viewBox="0 0 24 24" width="24" xmlns="http://www.w3.org/2000/svg"><path d="m8.65903377 19.6190476c6.79574723 0 10.51273423-5.8630075 10.51273423-10.94738114 0-.16652862 0-.33230711-.0108052-.49733546.7231062-.54466045 1.3473037-1.21904993 1.8433662-1.99159223-.6743313.3111548-1.389671.51521002-2.1221403.60535402.7713065-.48084609 1.3485773-1.2371336 1.624381-2.12811569-.7252753.4481685-1.518745.7640153-2.346168.93391048-1.145291-1.26817221-2.9651476-1.57856182-4.4390987-.75712015-1.4739511.82144166-2.2354322 2.57042604-1.8574485 4.26622314-2.97078328-.15508949-5.73865636-1.61628528-7.61478091-4.01994077-.98066309 1.75803564-.47975937 4.00708317 1.14390996 5.1361326-.58798902-.0181475-1.16315806-.1833216-1.67696623-.48158278v.04875838c.00048128 1.8315095 1.24025734 3.4089872 2.9642251 3.7716481-.5439554.1544816-1.11467788.1770637-1.66832207.0660114.48403521 1.5673364 1.87115327 2.6410417 3.45189956 2.6719591-1.30833978 1.0707579-2.92456319 1.6520297-4.58860606 1.6502836-.29397076-.0005877-.5876556-.0191227-.87954285-.0555096 1.68967022 1.1291515 3.65569519 1.7280847 5.66336277 1.7252965" fill="#492f5c" fill-rule="evenodd"/></svg>

<svg xmlns="http://www.w3.org/2000/svg" xmlns:xlink="http://www.w3.org/1999/xlink" width="24" height="24" viewBox="0 0 24 24">
  <defs>
    <path id="twitter-a" d="M8.65903377,19.6190476 C15.454781,19.6190476 19.171768,13.7560401 19.171768,8.67166646 C19.171768,8.50513784 19.171768,8.33935935 19.1609628,8.174331 C19.884069,7.62967055 20.5082665,6.95528107 21.004329,6.18273877 C20.3299977,6.49389357 19.614658,6.69794879 18.8821887,6.78809279 C19.6534952,6.3072467 20.230766,5.55095919 20.5065697,4.6599771 C19.7812944,5.1081456 18.9878247,5.4239924 18.1604017,5.59388758 C17.0151107,4.32571537 15.1952541,4.01532576 13.721303,4.83676743 C12.2473519,5.65820909 11.4858708,7.40719347 11.8638545,9.10299057 C8.89307122,8.94790108 6.12519814,7.48670529 4.24907359,5.0830498 C3.2684105,6.84108544 3.76931422,9.09013297 5.39298355,10.2191824 C4.80499453,10.2010349 4.22982549,10.0358608 3.71601732,9.73759962 C3.71601732,9.75335233 3.71601732,9.76985517 3.71601732,9.786358 C3.7164986,11.6178675 4.95627466,13.1953452 6.68024242,13.5580061 C6.13628702,13.7124877 5.56556454,13.7350698 5.01192035,13.6240175 C5.49595556,15.1913539 6.88307362,16.2650592 8.46381991,16.2959766 C7.15548013,17.3667345 5.53925672,17.9480063 3.87521385,17.9462602 C3.58124309,17.9456725 3.28755825,17.9271375 2.995671,17.8907506 C4.68534122,19.0199021 6.65136619,19.6188353 8.65903377,19.6160471"/>
  </defs>
  <use fill="#492F5C" fill-rule="evenodd" xlink:href="#twitter-a"/>
</svg>
